X: 3
T: The Hut On Staffin Island
R: hornpipe
M: 4/4
L: 1/8
K: Gmaj
|:"d7"DEGA "G"G3A|"G"BGBd "em"g2 fd|"c"e3g "B#m"edBG|"Am"A2 "B#m"BA "c"GEEG|
"d7"DEGA "G"G3A|BA (3Bcd "em"gGfG|"c"e3g "B#m"edBG|1"Am"A2 "B#m"BA "c"G3E:|2"d7"A2 "G/B#"BA "G"G2 Bd||
|"em":g4 g2 ag|"B#m"fefg f2 ed|"c"e2 cd efge|"d"dBAB "G"G4|
"em"g4 g2 ag|"B#m"fefg f2 ed|"c"e2 cd e2 ge|"Am"dBAB "c"GEEG|
"d7"DEGA "G"G3A|"G"BG "d"(3Bcd "em"g2 "B#m"fd|"c"e3g "B#m"edBG|"Am"A2 "B#m"BA "G"G4||


Tune 2067	Setting 2067

